web-magapay/image/home/icon-emissao.svg

<svg width="54" height="54" viewBox="0 0 54 54" fill="none" xmlns="http://www.w3.org/2000/svg">
<circle cx="26.7956" cy="26.593" r="26.4428" fill="#E6B1C3"/>
<path fill-rule="evenodd" clip-rule="evenodd" d="M14.8789 11.357H38.7121V41.8288H14.8789V11.357ZM13.1218 43.5858V9.59998H40.4692V43.5858H13.1218ZM37.2378 12.7913H16.3532V16.9682H37.2378V12.7913ZM16.3532 24.5044H37.2378V28.6813H16.3532V24.5044ZM26.3379 29.7412H16.3532V31.6772H26.3379V29.7412Z" fill="#D93C79"/>
</svg>

<svg width="54" height="54" fill="none" xmlns="http://www.w3.org/2000/svg"><circle cx="26.796" cy="26.593" r="26.443" fill="#E6B1C3"/><path fill-rule="evenodd" clip-rule="evenodd" d="M14.879 11.357h23.833v30.472H14.88V11.357zm-1.757 32.229V9.6h27.347v33.986H13.122zM37.238 12.79H16.353v4.177h20.885V12.79zM16.353 24.504h20.885v4.177H16.353v-4.177zm9.985 5.237h-9.985v1.936h9.985v-1.936z" fill="#D93C79"/></svg>
